ix/wallet-1_bold.svg

<svg viewBox="0 0 24 24" fill="none" xmlns="http://www.w3.org/2000/svg" height="1em" width="1em">
  <path d="M11.9392 2.21178L9.52922 7.82178H7.11922C6.71922 7.82178 6.32922 7.85178 5.94922 7.93178L6.94922 5.53178L6.98922 5.44178L7.04922 5.28178C7.07922 5.21178 7.09922 5.15178 7.12922 5.10178C8.28922 2.41178 9.58922 1.57178 11.9392 2.21178Z" fill="#292D32"/>
  <path d="M18.7311 8.08953L18.7111 8.07953C18.1111 7.90953 17.5011 7.81953 16.8811 7.81953H10.6211L12.8711 2.58953L12.9011 2.51953C13.0411 2.56953 13.1911 2.63953 13.3411 2.68953L15.5511 3.61953C16.7811 4.12953 17.6411 4.65953 18.1711 5.29953C18.2611 5.41953 18.3411 5.52953 18.4211 5.65953C18.5111 5.79953 18.5811 5.93953 18.6211 6.08953C18.6611 6.17953 18.6911 6.25953 18.7111 6.34953C18.8611 6.85953 18.8711 7.43953 18.7311 8.08953Z" fill="#292D32"/>
  <path d="M12.5195 17.6581H12.7695C13.0695 17.6581 13.3195 17.3881 13.3195 17.0581C13.3195 16.6381 13.1995 16.5781 12.9395 16.4781L12.5195 16.3281V17.6581Z" fill="#292D32"/>
  <path d="M18.2883 9.52031C17.8383 9.39031 17.3683 9.32031 16.8783 9.32031H7.11828C6.43828 9.32031 5.79828 9.45031 5.19828 9.71031C3.45828 10.4603 2.23828 12.1903 2.23828 14.2003V16.1503C2.23828 16.3903 2.25828 16.6203 2.28828 16.8603C2.50828 20.0403 4.20828 21.7403 7.38828 21.9503C7.61828 21.9803 7.84828 22.0003 8.09828 22.0003H15.8983C19.5983 22.0003 21.5483 20.2403 21.7383 16.7403C21.7483 16.5503 21.7583 16.3503 21.7583 16.1503V14.2003C21.7583 11.9903 20.2883 10.1303 18.2883 9.52031ZM13.2783 15.5003C13.7383 15.6603 14.3583 16.0003 14.3583 17.0603C14.3583 17.9703 13.6483 18.7003 12.7683 18.7003H12.5183V18.9203C12.5183 19.2103 12.2883 19.4403 11.9983 19.4403C11.7083 19.4403 11.4783 19.2103 11.4783 18.9203V18.7003H11.3883C10.4283 18.7003 9.63828 17.8903 9.63828 16.8903C9.63828 16.6003 9.86828 16.3703 10.1583 16.3703C10.4483 16.3703 10.6783 16.6003 10.6783 16.8903C10.6783 17.3103 10.9983 17.6603 11.3883 17.6603H11.4783V15.9703L10.7183 15.7003C10.2583 15.5403 9.63828 15.2003 9.63828 14.1403C9.63828 13.2303 10.3483 12.5003 11.2283 12.5003H11.4783V12.2803C11.4783 11.9903 11.7083 11.7603 11.9983 11.7603C12.2883 11.7603 12.5183 11.9903 12.5183 12.2803V12.5003H12.6083C13.5683 12.5003 14.3583 13.3103 14.3583 14.3103C14.3583 14.6003 14.1283 14.8303 13.8383 14.8303C13.5483 14.8303 13.3183 14.6003 13.3183 14.3103C13.3183 13.8903 12.9983 13.5403 12.6083 13.5403H12.5183V15.2303L13.2783 15.5003Z" fill="#292D32"/>
  <path d="M10.6797 14.1391C10.6797 14.5591 10.7997 14.6191 11.0597 14.7191L11.4797 14.8691V13.5391H11.2297C10.9197 13.5391 10.6797 13.8091 10.6797 14.1391Z" fill="#292D32"/>
</svg>

<svg viewBox="0 0 24 24" fill="none" xmlns="http://www.w3.org/2000/svg" height="1em" width="1em">
  <path d="m11.94 2.212-2.41 5.61H7.12c-.4 0-.79.03-1.17.11l1-2.4.04-.09.06-.16c.03-.07.05-.13.08-.18 1.16-2.69 2.46-3.53 4.81-2.89Zm6.791 5.878-.02-.01c-.6-.17-1.21-.26-1.83-.26h-6.26l2.25-5.23.03-.07c.14.05.29.12.44.17l2.21.93c1.23.51 2.09 1.04 2.62 1.68.09.12.17.23.25.36.09.14.16.28.2.43.04.09.07.17.09.26.15.51.16 1.09.02 1.74Zm-6.211 9.568h.25c.3 0 .55-.27.55-.6 0-.42-.12-.48-.38-.58l-.42-.15v1.33Z" fill="#292D32"/>
  <path d="M18.288 9.52c-.45-.13-.92-.2-1.41-.2h-9.76c-.68 0-1.32.13-1.92.39a4.894 4.894 0 0 0-2.96 4.49v1.95c0 .24.02.47.05.71.22 3.18 1.92 4.88 5.1 5.09.23.03.46.05.71.05h7.8c3.7 0 5.65-1.76 5.84-5.26.01-.19.02-.39.02-.59V14.2a4.9 4.9 0 0 0-3.47-4.68Zm-5.01 5.98c.46.16 1.08.5 1.08 1.56 0 .91-.71 1.64-1.59 1.64h-.25v.22c0 .29-.23.52-.52.52-.29 0-.52-.23-.52-.52v-.22h-.09c-.96 0-1.75-.81-1.75-1.81 0-.29.23-.52.52-.52.29 0 .52.23.52.52 0 .42.32.77.71.77h.09v-1.69l-.76-.27c-.46-.16-1.08-.5-1.08-1.56 0-.91.71-1.64 1.59-1.64h.25v-.22c0-.29.23-.52.52-.52.29 0 .52.23.52.52v.22h.09c.96 0 1.75.81 1.75 1.81 0 .29-.23.52-.52.52-.29 0-.52-.23-.52-.52 0-.42-.32-.77-.71-.77h-.09v1.69l.76.27Z" fill="#292D32"/>
  <path d="M10.68 14.14c0 .42.12.48.38.58l.42.15v-1.33h-.25c-.31 0-.55.27-.55.6Z" fill="#292D32"/>
</svg>
